X: 29724
T: Nuptial Knot, The
R: jig
M: 6/8
K: Edorian
BGE EFE|AFD DFA|BGE EFE|FGF d3|BGE EFE|AFD DFA|dcB cBA|BAF d3:|
d2B BdB|c2A AcA|d2B BdB|dBd e2f|d2B BdB|A2F FGF|BGE EFE|FGF d3|
d2B BdB|c2A AcA|d2B BdB|dBd efg|agf gfe|fed edc|dcB cBA|BAF d3||

